X:67
M:3/4
L:1/4
K:G
B A G | (G F) G | (A E) F | G3 | G F E | D2 G | (G F) G | A3 | B A G | (G F) G | (A E) F | G3 | G F E | D2 B | (A B) A | G3 | c c c | B2 B | A2 A | B3 | !sintro!B A G | E2 G | A2 A | G3 !eintro!|]
